_inc/logos/recordings.svg

<!-- Created by ERK --><svg xmlns="http://www.w3.org/2000/svg" width="1920" height="1164" style="shape-rendering:geometricPrecision;text-rendering:geometricPrecision;image-rendering:optimizeQuality;fill-rule:evenodd;clip-rule:evenodd"><path fill="#221e1f" d="M137.5 189.5h137v98q-64.002-.25-128 .5-37.784 3.297-36.5 41.5-1 247.5 0 495-.589 33.89 32.5 39.5 65.998.75 132 .5v98q-73.001.25-146-.5-71.886-6.774-104.5-70.5-9.02-20.578-11-43-1-271.5 0-543 9.83-90.827 98.5-112.5 13.16-2.25 26-3.5m1571 0q40.53-.442 81 1.5c56.7 3.7 93.86 32.533 111.5 86.5 2.53 9.179 4.2 18.512 5 28q2.925 270.5 0 541c-6.33 59.664-38.5 97.164-96.5 112.5a155.5 155.5 0 0 1-20 3c-48.33.5-96.67.667-145 .5-.17-29.335 0-58.669.5-88 2.81-4.162 6.64-6.995 11.5-8.5q59.985-1.652 120-2 19.59-2.11 28.5-19.5a64.2 64.2 0 0 0 4-22q1.005-246 0-492 .78-17.146-9-31c-7.31-7.234-16.14-11.067-26.5-11.5-42.67-.5-85.33-.667-128-.5v-96q31.755-.603 63-2" style="opacity:.997"/><path fill="#ed1c23" d="M366.5 383.5q121.815-4.482 184.5 99 40.269 77.899 12 161-39.146 96.642-140.5 121.5-120.906 20.049-196.5-75.5-54.043-78.783-28-171 43.54-118.288 168.5-135" style="opacity:.995"/><path fill="#221e1f" d="M1496.5 411.5q58.875-3.875 111 23.5c19.46 11.141 27.13 27.975 23 50.5.57 10.232-.59 20.232-3.5 30q-7.65 11.986-19.5 3.5c-29-24-62.33-35-100-33-33.85 4-59.02 20.833-75.5 50.5-12.14 24.213-18.8 49.879-20 77-2.96 34.65 1.37 68.317 13 101 18.16 41.35 49.99 62.017 95.5 62 26.12-.429 50.45-7.262 73-20.5q11.55-7.778 24-14c7.29-1.053 11.46 2.114 12.5 9.5a286 286 0 0 1 1 46q-1.5 14.758-13.5 23.5c-24.2 15.068-50.53 24.401-79 28-39.43 5.224-77.77.89-115-13-42.74-18.746-72.58-49.913-89.5-93.5-12.25-34.085-18.08-69.251-17.5-105.5-.91-42.375 7.26-82.875 24.5-121.5 32.15-63.686 83.98-98.353 155.5-104" style="opacity:.995"/><path fill="#221e1f" d="M660.5 418.5q72.502-.25 145 .5 52.068.856 94 31 31.043 27.833 35.5 69.5 8.985 94.347-79.5 126.5 30.988 17.488 46.5 49.5a4344 4344 0 0 1 51 118q5.372 11.476 4 24a6.98 6.98 0 0 1-2.5 3.5 38.4 38.4 0 0 1-15 4 279.6 279.6 0 0 1-57 0q-11.221-.546-17.5-9.5a7420 7420 0 0 0-43-107q-9.204-21.421-23-40-15.378-15.812-37.5-17.5a512 512 0 0 0-32-.5 4647 4647 0 0 1-1.5 166q-5.875 6.313-14.5 7.5-30.597 5.181-61-1-7.032-1.38-10.5-7.5a39383 39383 0 0 1 0-397q.99-7.476 6-13a78 78 0 0 1 12.5-7m69 67a857 857 0 0 1 62 1.5q60.704 8.252 52.5 69.5-7.877 34.88-42.5 44.5a127 127 0 0 1-18 3q-26.995.75-54 .5z" style="opacity:.996"/><path fill="#221e1f" d="M1038.5 418.5c74.33-.167 148.67 0 223 .5 3.23 1.944 5.4 4.778 6.5 8.5a157.7 157.7 0 0 1 2 41c-.52 4.9-1.86 9.566-4 14a17.9 17.9 0 0 1-5.5 4.5c-51.33.5-102.67.667-154 .5v102c43.67-.167 87.33 0 131 .5 6.14 4.116 9.31 9.949 9.5 17.5q1.005 16 0 32c-.29 6.007-2.45 11.173-6.5 15.5a20.6 20.6 0 0 1-6 2q-63.855 1.245-127.5-.5c-.5 39.332-.67 78.665-.5 118 51.33-.167 102.67 0 154 .5q9.795 3.82 10.5 14.5 3 20 0 40-.705 10.68-10.5 14.5c-72.67.667-145.33.667-218 0q-18.27-1.779-22.5-19.5-1.005-193 0-386c1.9-10.73 8.07-17.397 18.5-20" style="opacity:.993"/></svg>

<?xml version="1.0" encoding="UTF-8"?>
<!DOCTYPE svg PUBLIC "-//W3C//DTD SVG 1.1//EN" "http://www.w3.org/Graphics/SVG/1.1/DTD/svg11.dtd">
<svg xmlns="http://www.w3.org/2000/svg" version="1.1" width="1920px" height="1164px" style="shape-rendering:geometricPrecision; text-rendering:geometricPrecision; image-rendering:optimizeQuality; fill-rule:evenodd; clip-rule:evenodd" xmlns:xlink="http://www.w3.org/1999/xlink">
<g><path style="opacity:0.997" fill="#221e1f" d="M 137.5,189.5 C 183.167,189.5 228.833,189.5 274.5,189.5C 274.5,222.167 274.5,254.833 274.5,287.5C 231.832,287.333 189.165,287.5 146.5,288C 121.311,290.198 109.144,304.031 110,329.5C 109.333,494.5 109.333,659.5 110,824.5C 109.607,847.093 120.441,860.26 142.5,864C 186.499,864.5 230.499,864.667 274.5,864.5C 274.5,897.167 274.5,929.833 274.5,962.5C 225.832,962.667 177.166,962.5 128.5,962C 80.5762,957.484 45.7429,933.984 24,891.5C 17.9868,877.781 14.3201,863.448 13,848.5C 12.3333,667.5 12.3333,486.5 13,305.5C 19.5537,244.949 52.387,207.449 111.5,193C 120.273,191.5 128.94,190.334 137.5,189.5 Z"/></g>
<g><path style="opacity:0.997" fill="#221e1f" d="M 1708.5,189.5 C 1735.52,189.205 1762.52,189.705 1789.5,191C 1846.2,194.7 1883.36,223.533 1901,277.5C 1903.53,286.679 1905.2,296.012 1906,305.5C 1907.95,485.833 1907.95,666.167 1906,846.5C 1899.67,906.164 1867.5,943.664 1809.5,959C 1802.9,960.434 1796.23,961.434 1789.5,962C 1741.17,962.5 1692.83,962.667 1644.5,962.5C 1644.33,933.165 1644.5,903.831 1645,874.5C 1647.81,870.338 1651.64,867.505 1656.5,866C 1696.49,864.899 1736.49,864.232 1776.5,864C 1789.56,862.593 1799.06,856.093 1805,844.5C 1807.62,837.407 1808.95,830.074 1809,822.5C 1809.67,658.5 1809.67,494.5 1809,330.5C 1809.52,319.069 1806.52,308.736 1800,299.5C 1792.69,292.266 1783.86,288.433 1773.5,288C 1730.83,287.5 1688.17,287.333 1645.5,287.5C 1645.5,255.5 1645.5,223.5 1645.5,191.5C 1666.67,191.098 1687.67,190.431 1708.5,189.5 Z"/></g>
<g><path style="opacity:0.995" fill="#ed1c23" d="M 366.5,383.5 C 447.71,380.512 509.21,413.512 551,482.5C 577.846,534.433 581.846,588.099 563,643.5C 536.903,707.928 490.069,748.428 422.5,765C 341.896,778.366 276.396,753.199 226,689.5C 189.971,636.978 180.638,579.978 198,518.5C 227.027,439.641 283.194,394.641 366.5,383.5 Z"/></g>
<g><path style="opacity:0.995" fill="#221e1f" d="M 1496.5,411.5 C 1535.75,408.917 1572.75,416.75 1607.5,435C 1626.96,446.141 1634.63,462.975 1630.5,485.5C 1631.07,495.732 1629.91,505.732 1627,515.5C 1621.9,523.491 1615.4,524.657 1607.5,519C 1578.5,495 1545.17,484 1507.5,486C 1473.65,490 1448.48,506.833 1432,536.5C 1419.86,560.713 1413.2,586.379 1412,613.5C 1409.04,648.15 1413.37,681.817 1425,714.5C 1443.16,755.85 1474.99,776.517 1520.5,776.5C 1546.62,776.071 1570.95,769.238 1593.5,756C 1601.2,750.815 1609.2,746.148 1617.5,742C 1624.79,740.947 1628.96,744.114 1630,751.5C 1631.57,766.793 1631.9,782.126 1631,797.5C 1630,807.338 1625.5,815.172 1617.5,821C 1593.3,836.068 1566.97,845.401 1538.5,849C 1499.07,854.224 1460.73,849.89 1423.5,836C 1380.76,817.254 1350.92,786.087 1334,742.5C 1321.75,708.415 1315.92,673.249 1316.5,637C 1315.59,594.625 1323.76,554.125 1341,515.5C 1373.15,451.814 1424.98,417.147 1496.5,411.5 Z"/></g>
<g><path style="opacity:0.996" fill="#221e1f" d="M 660.5,418.5 C 708.834,418.333 757.168,418.5 805.5,419C 840.212,419.571 871.545,429.904 899.5,450C 920.195,468.556 932.029,491.722 935,519.5C 940.99,582.398 914.49,624.565 855.5,646C 876.159,657.659 891.659,674.159 902,695.5C 919.584,734.586 936.584,773.92 953,813.5C 956.581,821.151 957.915,829.151 957,837.5C 956.535,838.931 955.701,840.097 954.5,841C 949.774,843.353 944.774,844.686 939.5,845C 920.498,846.942 901.498,846.942 882.5,845C 875.019,844.636 869.186,841.469 865,835.5C 850.943,799.72 836.61,764.054 822,728.5C 815.864,714.219 808.197,700.886 799,688.5C 788.748,677.959 776.248,672.125 761.5,671C 750.839,670.5 740.172,670.333 729.5,670.5C 729.988,725.892 729.488,781.226 728,836.5C 724.083,840.709 719.25,843.209 713.5,844C 693.102,847.454 672.768,847.121 652.5,843C 647.812,842.08 644.312,839.58 642,835.5C 641.333,703.167 641.333,570.833 642,438.5C 642.66,433.516 644.66,429.183 648,425.5C 652.019,422.745 656.185,420.411 660.5,418.5 Z M 729.5,485.5 C 750.186,485.252 770.853,485.752 791.5,487C 831.969,492.501 849.469,515.668 844,556.5C 838.748,579.753 824.582,594.587 801.5,601C 795.574,602.432 789.574,603.432 783.5,604C 765.503,604.5 747.503,604.667 729.5,604.5C 729.5,564.833 729.5,525.167 729.5,485.5 Z"/></g>
<g><path style="opacity:0.993" fill="#221e1f" d="M 1038.5,418.5 C 1112.83,418.333 1187.17,418.5 1261.5,419C 1264.73,420.944 1266.9,423.778 1268,427.5C 1270.45,441.056 1271.12,454.723 1270,468.5C 1269.48,473.4 1268.14,478.066 1266,482.5C 1264.46,484.378 1262.62,485.878 1260.5,487C 1209.17,487.5 1157.83,487.667 1106.5,487.5C 1106.5,521.5 1106.5,555.5 1106.5,589.5C 1150.17,589.333 1193.83,589.5 1237.5,590C 1243.64,594.116 1246.81,599.949 1247,607.5C 1247.67,618.167 1247.67,628.833 1247,639.5C 1246.71,645.507 1244.55,650.673 1240.5,655C 1238.61,655.973 1236.61,656.64 1234.5,657C 1191.93,657.83 1149.43,657.663 1107,656.5C 1106.5,695.832 1106.33,735.165 1106.5,774.5C 1157.83,774.333 1209.17,774.5 1260.5,775C 1267.03,777.547 1270.53,782.38 1271,789.5C 1273,802.833 1273,816.167 1271,829.5C 1270.53,836.62 1267.03,841.453 1260.5,844C 1187.83,844.667 1115.17,844.667 1042.5,844C 1030.32,842.814 1022.82,836.314 1020,824.5C 1019.33,695.833 1019.33,567.167 1020,438.5C 1021.9,427.77 1028.07,421.103 1038.5,418.5 Z"/></g>
</svg>
